!!!COM: Palestrina, Giovanni Perluigi da
!!!OPR: Missa In festis Apostolorum (I)
!!!OMD: Credo
!!!OTL: Et incarnatus
**kern	**kern	**kern	**kern	**kern
*Ibass	*Itenor	*Itenor	*Icalto	*Icant
!Bassus	!Tenor 2	!Tenor 1	!Altus	!Cantus
*clefF4	*clefGv2	*clefGv2	*clefG2	*clefG2
*k[]	*k[]	*k[]	*k[]	*k[]
*D:dor	*D:dor	*D:dor	*D:dor	*D:dor
*M4/2	*M4/2	*M4/2	*M4/2	*M4/2
=58	=58	=58	=58	=58
1A	0r	1r	0r	0r
1G	.	1d	.	.
=59	=59	=59	=59	=59
1A	1r	1c	0r	0r
2G	2r	1d	.	.
2F	[2A	.	.	.
=60	=60	=60	=60	=60
1E	2A]	2c	1e	1r
.	2G	2B	.	.
1F	1A	2A	1d	1a
.	.	2D	.	.
=61	=61	=61	=61	=61
1E	2c	0r	1e	1g
.	2B	.	.	.
1F	2.A	.	2d	1a
.	.	.	[2c	.
.	4B	.	.	.
=62	=62	=62	=62	=62
2E	2c	0r	4c]	2g
.	.	.	8B	.
.	.	.	8A	.
2D	2d	.	2B	2f
1C	1G	.	2c	1e
.	.	.	2e	.
=63	=63	=63	=63	=63
1C	1c	0r	2.g	2r
.	.	.	.	2e
.	.	.	4f	.
1C	2c	.	4e	1g
.	.	.	4d	.
.	2c	.	2e	.
=64	=64	=64	=64	=64
2D	1A	0r	2d	2f
2AA	.	.	2c	2e
1E	2r	.	1B	1g
.	2B	.	.	.
=65	=65	=65	=65	=65
0AA	2.c	2r	4A	1a
.	.	.	4B	.
.	.	2A	4c	.
.	4B	.	4d	.
.	4A	1c	2.e	2r
.	4G	.	.	.
.	2A	.	.	2e
.	.	.	4c	.
=66	=66	=66	=66	=66
0r	2G	2B	1d	2g
.	2F	2A	.	2a
.	1E	1c	1e	2g
.	.	.	.	2g
=67	=67	=67	=67	=67
2r	1D	1d	1A	2f
1F	.	.	.	1a
.	2F	2c	1r	.
2E	2G	2c	.	2g
=68	=68	=68	=68	=68
2D	2A	2d	0r	2f
2C	2c	2G	.	2e
1BB-	[1d	2B-	.	4f
.	.	.	.	4d
.	.	2B-	.	[2g
=69	=69	=69	=69	=69
1D	2d]	2A	0r	4g]
.	.	.	.	4f
.	2A	4G	.	1f
.	.	4F	.	.
1C	2c	2G	.	.
.	2C	[2c	.	2e
=70	=70	=70	=70	=70
0r	1G	2c]	1g	1d
.	.	2B	.	.
.	2A	2A	2f	2r
.	2B	2G	2e	2g
=71	=71	=71	=71	=71
0r	4c	1F	2f	2a
.	4A	.	.	.
.	2.d	.	2.f	1a
.	.	1A	.	.
.	4c	.	4e	.
.	[2c	.	2c	2f
=72	=72	=72	=72	=72
0r	2c]	0G	1.d	1.g
.	4B	.	.	.
.	4A	.	.	.
.	2B	.	.	.
.	2B	.	2d	2g
=73	=73	=73	=73	=73
1r	1c	1r	1e	1g
1FF	1c	1F	1f	1a
=74	=74	=74	=74	=74
1C	1c	1G	1e	1g
1FF	1c	1F	1f	1a
=75	=75	=75	=75	=75
1C	1c	2G	1e	1g
.	.	2E	.	.
1D	[1A	2.F	1d	1f
.	.	4G	.	.
=76	=76	=76	=76	=76
0AA	2A]	0A	2.c	[0e
.	4G	.	.	.
.	4F	.	8B	.
.	.	.	8A	.
.	1E	.	1c	.
=77	=77	=77	=77	=77
[0E	[0E	[0G#	[0B	1e_
.	.	.	.	1e_
=78	=78	=78	=78	=78
0E]	0E]	0G#]	0B]	0e]
*-	*-	*-	*-	*-
!!!CDT: 1525/^1526/-1594/2/2
!!!OCY: Italia
!!!AGN: Mass (Paraphrase)
!!!AST: renaissance, vocal
!!!ASW: Gregorian Mass
!!!PWK: Masses, Book Mantuan II
!!!RNB: Cadence finals: A,E
!!!YOR: Le Opere Complete, v. 19, p. 43
!!!YOO: Rome, Italy: Fratelli Scalera
!!!END: 1992//
!!!EED: John Miller
!!!YEC: Copyright 2000, John Miller
!!!YEN: United States of America
!!!YEM: Rights to all derivative electronic formats reserved.
!!!YEM: Refer to licensing agreement for further details.
!!!YEM: This file must be accompanied by the licensing agreement.
!!!YEM: A copy of the licensing agreement may be found at http://www.music-cog.ohio-state.edu/HumdrumDatabases/Palestrina/license.txt
!!!EMD: converted to Humdrum by Bret Aarden
